X: 91
T: Sitting Bull's Medicine Song (a)
C: Teton Sioux band 1911-1914
N: Derived from sioux091.krn
O: South Dakota, U.S.A.
N: Teton Sioux Music by Frances Densmore, 1918
Z: transcribed to **kern format by Craig Sapp
L: 1/16
M: 2/4
Q: 1/4=58
K: Bb clef=bass
%%linebreak <none>
F, F, [I:setbarnb 1]| 
D2> E2D4 | 
C2> D2 C3 B, | 
B,4B,4 ||  
[M:3/4]B,8-B,2 C C ||  
[M:2/4]C2> D2 C3 B, | 
B,4B,2 G,3/ F,/ | 
F,4F,4 ||  
[M:3/4]F,8-F,2 D, D, ||  
[M:2/4]F,4G,3 G, | 
F,2> G,2 F,3 D, | 
D,4D,4 | 
D,8 | 
D,6 :|]  



